client/public/img/game/buildings/pumpkin_farm_floor.svg

<?xml version="1.0" encoding="utf-8"?>
<svg width="1345.5197" height="1332.4841" viewBox="0 0 356.00207 352.5531" xmlns="http://www.w3.org/2000/svg">
  <g id="layer1" transform="matrix(1, 0, 0, 1, 73.02501678466797, 27.7812385559082)">
    <g id="g50118" transform="translate(-3399.277,-3146.9164)">
      <path style="fill-opacity: 1; stroke: none; stroke-width: 0.98184; stroke-linejoin: round; stroke-dasharray: none; stroke-opacity: 1; paint-order: fill markers; stop-color: rgb(0, 0, 0); fill: rgb(44, 67, 40);" d="m 3341.4263,3461.6819 c -0.7575,-4.6351 1.3354,-9.9565 -0.8268,-14.4573 -4.328,-9.0091 -12.6259,-13.379 -14.056,-24.0956 -1.4748,-11.0526 2.8988,-21.582 7.4414,-31.6685 1.9421,-4.3122 2.8107,-9.9086 3.3073,-14.4574 0.4964,-4.545 -0.6051,-9.2342 0,-13.7689 0.4474,-3.3523 1.2094,-6.1336 0.8269,-9.6382 -0.7787,-7.1327 -3.0819,-14.5829 -5.7878,-21.3418 -1.4589,-3.6445 -1.3994,-7.4145 -2.4805,-11.0152 -1.1678,-3.8896 -2.3709,-8.2115 -1.6536,-12.392 0.4831,-2.8161 2.3413,-5.5802 3.3073,-8.2613 1.6311,-4.5274 3.4692,-9.215 4.9609,-13.7689 2.0452,-6.244 2.0302,-12.9036 2.4805,-19.2765 0.2931,-4.149 1.3605,-8.2431 1.6536,-12.392 0.3942,-5.5794 0.4186,-11.6333 0,-17.2111 -0.5397,-7.192 -1.9341,-14.3805 -4.1341,-21.3419 -1.4642,-4.6327 -5.0715,-8.9989 -5.7878,-13.7688 -1.1109,-7.4011 -1.8282,-15.9021 -0.8268,-23.4072 0.5792,-4.3393 2.0032,-8.7081 2.4805,-13.0804 1.1747,-10.7594 2.1473,-24.3831 0,-35.1108 -0.3321,-1.6584 -4.2177,-9.9478 -1.6537,-11.0151 0.9322,-0.3882 3.0134,0 4.1342,0 4.0936,0 8.7026,-0.4715 12.4023,1.3769 0.6683,0.334 1.0448,0.9715 1.6536,1.3769 3.3383,2.2235 8.7419,4.8191 13.2292,4.8191 7.2671,0 14.424,-2.2643 21.4974,-3.4422 12.5312,-2.0868 25.3198,-4.0049 38.0339,-4.8192 4.977,-0.3187 16.5407,-0.6877 21.4974,0 2.6881,0.3731 5.8086,0.8365 8.2682,2.0654 0.8522,0.4256 1.5377,1.1152 2.4805,1.3769 0.7844,0.2176 1.6586,-0.076 2.4804,0 1.6661,0.1542 3.2888,0.589 4.961,0.6885 7.5001,0.446 20.7623,0.5562 28.1119,0 4.9903,-0.3779 9.8873,-1.7455 14.8829,-2.0654 10.9601,-0.7019 22.0974,0.5375 33.0729,0 4.7273,-0.1053 9.3474,-1.1319 14.056,-1.3769 6.3087,-0.3283 12.7153,0.4036 19.0169,0 5.4303,-0.3478 11.0284,-1.2617 16.5364,-0.6885 3.0896,0.3217 7.0356,0.5759 9.9219,1.377 0.3699,0.1026 0.457,0.5857 0.8268,0.6884 0.5229,0.1451 1.1608,-0.2053 1.6537,0 0.2466,0.1027 -0.195,0.5261 0,0.6884 0.4524,0.3767 15.7919,0.6409 16.5364,0.6885 7.2398,0.4637 14.218,0.6885 21.4974,0.6885 2.2821,0 5.2092,0.3718 7.4415,0 3.0196,-0.5028 5.1143,-2.3161 8.2682,-2.7538 6.5675,-0.9114 16.8333,-3.1951 22.3242,1.3768 0.195,0.1624 -0.1233,0.4831 0,0.6885 2.6821,4.4664 -1.8243,7.3819 -3.3073,11.7035 -1.5465,4.5065 1.8915,-0.3961 -0.8268,4.1308 -1.6259,2.7077 -1.7878,1.2466 -2.4805,4.1306 -0.2162,0.9002 0.2675,1.8633 0,2.7538 -1.8185,6.0565 0.089,11.7597 0.8268,17.8996 0.3247,2.7037 -0.4617,5.5703 0,8.2613 0.1606,0.9368 0.6663,1.817 0.8269,2.7537 0.441,2.5703 -0.7351,2.4478 0,5.5076 0.291,1.2119 1.2459,2.254 1.6536,3.4422 0.1513,0.4413 -0.1744,0.9417 0,1.377 0.1233,0.308 0.5511,0.4588 0.8268,0.6884 0.2757,0.6884 0.6834,1.3496 0.8269,2.0654 0.6741,3.3682 1.969,6.9196 2.4804,10.3266 0.4009,2.6694 0,5.5662 0,8.2614 0,6.253 -0.2061,12.3874 -0.8268,18.588 -0.4625,4.6202 -1.8666,9.1686 -2.4805,13.7689 -0.4823,3.6143 0.6432,0.5356 0,4.8191 -0.8726,5.8131 -0.8268,10.5975 -0.8268,16.5227 0,10.4353 0.4178,21.4432 3.3073,31.6685 3.6229,12.82 7.6938,21.6315 6.6146,35.1107 -0.3781,4.7209 -2.2072,9.1889 -3.3073,13.769 -1.0893,4.5351 -1.2261,9.2434 -2.4805,13.7688 -0.4511,1.6278 -1.2332,3.1856 -1.6536,4.8192 -1.2631,4.908 -0.1752,9.5737 -0.8268,14.4573 -1.0645,7.9767 -1.6537,14.555 -1.6537,22.7187 0,2.3839 -0.385,6.3848 0,8.9498 0.4233,2.8205 1.107,5.5298 1.6537,8.2613 0.3995,1.9962 2.0809,3.5115 2.4804,5.5076 0.3625,1.8109 -0.2193,3.6808 0,5.5076 0.14,1.1643 0.6525,2.2812 0.8268,3.4422 0.4009,2.6694 0,5.569 0,8.2614 0,5.737 0,11.4739 0,17.2111 0,1.6064 -0.3172,3.2347 0,4.8191 0.4125,2.0611 2.9337,6.1295 1.6537,8.2614 -1.0033,1.6707 -2.8821,0.1301 -4.1341,0 -2.4614,-0.2562 -4.961,0 -7.4414,0 -5.1967,0 -10.5736,1.2993 -15.7097,0.6884 -4.0505,-0.4819 -7.8721,-2.1575 -11.5755,-3.4422 -7.8065,-2.7084 -12.2518,-3.4422 -20.6706,-3.4422 -6.1232,0 -10.6788,2.112 -16.5364,3.4422 -12.4592,2.8293 -26.021,4.2251 -38.8607,4.819 -11.5742,0.5354 -23.2085,-0.089 -34.7266,-0.6884 -8.4592,-0.4401 -17.2212,0.8239 -25.6315,0 -8.41,-0.8237 -16.4335,-3.4336 -24.8047,-4.1306 -8.0981,-0.6744 -16.1303,1.722 -23.9778,2.7538 -9.8343,1.2929 -19.8776,1.0966 -29.7656,2.0652 -2.5236,0.2473 -4.92,1.1146 -7.4414,1.377 -2.4615,0.2562 -5.0883,-0.6532 -7.4415,0 -0.3698,0.1027 -0.5511,0.4589 -0.8268,0.6884 -1.1025,0.2296 -2.1796,0.571 -3.3073,0.6884 -7.162,0.7456 -16.3465,0.3937 -23.151,-1.3768 -6.0344,-1.5701 -11.3027,-4.2461 -17.3633,-5.5076 -1.4965,0.4151 -1.5378,-1.1151 -2.4805,-1.3769 -1.3073,-0.3628 -2.7828,0.225 -4.1341,0 -0.6043,-0.1007 -1.0689,-0.5261 -1.6536,-0.6885 -2.8406,-0.7884 -6.9337,0.2488 -9.9219,0 -1.9391,-0.1614 -3.8584,-0.4588 -5.7878,-0.6884 z" id="path31991"/>
    </g>
  </g>
</svg>

<?xml version="1.0" encoding="utf-8"?>
<svg width="1345.5197" height="1332.4841" viewBox="0 0 356.00207 352.5531" xmlns="http://www.w3.org/2000/svg">
  <g id="layer1" transform="matrix(1, 0, 0, 1, 73.02501787282554, 27.781238969880974)">
    <g id="g50118" transform="translate(-3399.277,-3146.9164)">
      <path style="fill-opacity: 1; stroke: none; stroke-width: 0.98184; stroke-linejoin: round; stroke-dasharray: none; stroke-opacity: 1; paint-order: fill markers; stop-color: rgb(0, 0, 0); fill: rgb(24, 26, 0);" d="M 3341.426 3461.682 C 3340.669 3457.047 3342.762 3451.725 3340.6 3447.225 C 3336.272 3438.216 3331.748 3434.924 3330.318 3424.207 C 3328.843 3413.154 3329.442 3401.547 3333.985 3391.46 C 3335.927 3387.148 3336.796 3381.552 3337.292 3377.003 C 3337.789 3372.458 3336.687 3367.769 3337.292 3363.234 C 3337.74 3359.882 3338.502 3357.101 3338.119 3353.596 C 3337.34 3346.463 3335.037 3339.013 3332.331 3332.254 C 3330.872 3328.61 3330.932 3324.84 3329.851 3321.239 C 3328.683 3317.349 3327.48 3313.028 3328.197 3308.847 C 3328.68 3306.031 3330.539 3303.267 3331.505 3300.586 C 3333.136 3296.058 3334.974 3291.371 3336.465 3286.817 C 3338.511 3280.573 3331.488 3275.53 3331.938 3269.157 C 3332.231 3265.008 3331.681 3259.836 3331.975 3255.687 C 3332.369 3250.108 3331.315 3243.515 3330.897 3237.937 C 3330.357 3230.745 3338.665 3223.557 3336.465 3216.595 C 3335.001 3211.963 3331.394 3207.596 3330.678 3202.827 C 3329.567 3195.425 3328.849 3186.924 3329.851 3179.419 C 3330.43 3175.08 3331.854 3162.086 3332.331 3157.714 C 3333.506 3146.955 3334.479 3141.956 3332.331 3131.228 C 3331.999 3129.57 3328.114 3121.28 3330.678 3120.213 C 3331.61 3119.825 3333.691 3120.213 3334.812 3120.213 C 3338.905 3120.213 3343.514 3119.742 3347.214 3121.59 C 3347.882 3121.924 3348.259 3122.561 3348.868 3122.967 C 3352.206 3125.19 3360.844 3125.091 3365.331 3125.091 C 3372.598 3125.091 3376.521 3125.522 3383.594 3124.344 C 3396.126 3122.257 3408.914 3120.339 3421.628 3119.525 C 3426.605 3119.206 3438.169 3118.837 3443.126 3119.525 C 3445.814 3119.898 3448.934 3120.361 3451.394 3121.59 C 3452.246 3122.016 3452.932 3122.705 3453.874 3122.967 C 3454.659 3123.184 3455.533 3122.891 3456.355 3122.967 C 3458.021 3123.121 3459.644 3123.556 3461.316 3123.655 C 3468.816 3124.101 3482.078 3124.212 3489.428 3123.655 C 3494.418 3123.277 3499.315 3121.91 3504.311 3121.59 C 3515.271 3120.888 3526.408 3122.127 3537.383 3121.59 C 3542.111 3121.485 3546.731 3120.458 3551.439 3120.213 C 3557.748 3119.885 3564.155 3120.617 3570.456 3120.213 C 3575.887 3119.865 3581.485 3118.951 3586.993 3119.525 C 3590.082 3119.846 3594.028 3120.1 3596.915 3120.902 C 3597.285 3121.004 3597.372 3121.487 3597.741 3121.59 C 3598.264 3121.735 3598.902 3121.385 3599.395 3121.59 C 3599.642 3121.693 3599.2 3122.116 3599.395 3122.278 C 3599.848 3122.655 3615.187 3122.919 3615.932 3122.967 C 3623.171 3123.431 3630.15 3123.655 3637.429 3123.655 C 3639.711 3123.655 3642.638 3124.027 3644.87 3123.655 C 3647.89 3123.153 3649.985 3121.339 3653.139 3120.902 C 3659.706 3119.99 3669.972 3117.706 3675.463 3122.278 C 3675.658 3122.441 3675.34 3122.761 3675.463 3122.967 C 3678.145 3127.433 3673.639 3130.349 3672.156 3134.67 C 3670.609 3139.177 3674.047 3134.274 3671.329 3138.801 C 3669.703 3141.509 3669.541 3140.048 3668.848 3142.932 C 3668.632 3143.832 3669.116 3144.795 3668.848 3145.686 C 3667.03 3151.742 3668.937 3157.445 3669.675 3163.585 C 3670 3166.289 3669.213 3169.155 3669.675 3171.846 C 3669.836 3172.783 3670.341 3173.663 3670.502 3174.6 C 3670.943 3177.17 3669.767 3177.048 3670.502 3180.108 C 3670.793 3181.32 3671.748 3182.362 3672.156 3183.55 C 3672.307 3183.991 3671.981 3184.492 3672.156 3184.927 C 3672.279 3185.235 3672.707 3185.386 3672.982 3185.615 C 3673.258 3186.304 3673.666 3186.965 3673.809 3187.681 C 3674.483 3191.049 3675.778 3194.6 3676.29 3198.007 C 3676.691 3200.677 3676.29 3203.574 3676.29 3206.269 C 3676.29 3212.522 3676.084 3218.656 3675.463 3224.857 C 3675 3229.477 3673.596 3234.025 3672.982 3238.626 C 3672.5 3242.24 3673.626 3239.161 3672.982 3243.445 C 3672.11 3249.258 3677.023 3254.042 3677.023 3259.967 C 3677.023 3270.403 3672.573 3281.411 3675.463 3291.636 C 3679.086 3304.456 3683.157 3313.267 3682.077 3326.747 C 3681.699 3331.468 3679.87 3335.936 3678.77 3340.516 C 3677.681 3345.051 3677.544 3349.759 3676.29 3354.284 C 3675.839 3355.912 3675.056 3357.47 3674.636 3359.104 C 3673.373 3364.012 3674.461 3368.677 3673.809 3373.561 C 3672.745 3381.538 3672.156 3388.116 3672.156 3396.28 C 3672.156 3398.664 3671.771 3402.664 3672.156 3405.229 C 3672.579 3408.05 3673.263 3410.759 3673.809 3413.491 C 3674.209 3415.487 3675.89 3417.002 3676.29 3418.998 C 3676.652 3420.809 3676.07 3422.679 3676.29 3424.506 C 3676.43 3425.67 3676.942 3426.787 3677.116 3427.948 C 3677.517 3430.618 3677.116 3433.517 3677.116 3436.21 C 3677.116 3441.947 3677.116 3447.683 3677.116 3453.421 C 3677.116 3455.027 3676.799 3456.655 3677.116 3458.24 C 3677.529 3460.301 3680.05 3464.369 3678.77 3466.501 C 3677.767 3468.172 3675.888 3466.631 3674.636 3466.501 C 3672.175 3466.245 3669.675 3466.501 3667.195 3466.501 C 3661.998 3466.501 3656.621 3467.8 3651.485 3467.19 C 3647.434 3466.708 3643.613 3465.032 3639.909 3463.747 C 3632.103 3461.039 3627.658 3460.305 3619.239 3460.305 C 3613.116 3460.305 3608.56 3462.417 3602.702 3463.747 C 3590.243 3466.577 3576.681 3467.972 3563.842 3468.566 C 3552.268 3469.102 3540.633 3468.477 3529.115 3467.878 C 3520.656 3467.438 3511.894 3468.702 3503.484 3467.878 C 3495.074 3467.054 3487.05 3464.444 3478.679 3463.747 C 3470.581 3463.073 3462.549 3465.469 3454.701 3466.501 C 3444.867 3467.794 3434.824 3467.598 3424.935 3468.566 C 3422.412 3468.814 3420.015 3469.681 3417.494 3469.943 C 3415.033 3470.2 3412.406 3469.29 3410.053 3469.943 C 3409.683 3470.046 3409.501 3470.402 3409.226 3470.632 C 3408.123 3470.861 3407.046 3471.203 3405.919 3471.32 C 3398.757 3472.066 3389.572 3471.714 3382.768 3469.943 C 3376.733 3468.373 3371.465 3465.697 3365.404 3464.436 C 3363.908 3464.851 3363.866 3463.321 3362.924 3463.059 C 3361.616 3462.696 3360.141 3463.284 3358.79 3463.059 C 3358.185 3462.958 3357.721 3462.533 3357.136 3462.37 C 3354.295 3461.582 3350.202 3462.619 3347.214 3462.37 C 3345.275 3462.209 3343.356 3461.912 3341.426 3461.682 Z" id="path31991"/>
    </g>
  </g>
</svg>
